src/assets/duotone/ReceiptAdd.svg

<?xml version="1.0" encoding="UTF-8"?>
<svg width="24" height="24" viewBox="0 0 24 24" xmlns="http://www.w3.org/2000/svg">
 <path d="M22 6V8.42C22 10 21 11 19.42 11H16V4.01C16 2.9 16.91 2 18.02 2C19.11 2.01 20.11 2.45 20.83 3.17C21.55 3.9 22 4.9 22 6Z"/>
 <path d="m2 7v14c0 0.83 0.94001 1.3 1.6 0.8l1.71-1.28c0.4-0.3 0.96-0.26 1.32 0.1l1.66 1.67c0.39 0.39 1.03 0.39 1.42 0l1.68-1.68c0.35-0.35 0.91-0.39 1.3-0.09l1.71 1.28c0.66 0.49 1.6 0.02 1.6-0.8v-17c0-1.1 0.9-2 2-2h-12c-3 0-4 1.79-4 4v1z" opacity=".4"/>
 <path d="m11.75 9.25h-2v-2c0-0.41-0.34-0.75-0.75-0.75s-0.75 0.34-0.75 0.75v2h-2c-0.41 0-0.75 0.34-0.75 0.75s0.34 0.75 0.75 0.75h2v2c0 0.41 0.34 0.75 0.75 0.75s0.75-0.34 0.75-0.75v-2h2c0.41 0 0.75-0.34 0.75-0.75s-0.34-0.75-0.75-0.75z"/>
</svg>

<svg width="24" height="24" viewBox="0 0 24 24"  xmlns="http://www.w3.org/2000/svg">
<path d="M22 6V8.42C22 10 21 11 19.42 11H16V4.01C16 2.9 16.91 2 18.02 2C19.11 2.01 20.11 2.45 20.83 3.17C21.55 3.9 22 4.9 22 6Z" />
<path opacity="0.4" d="M2 7V21C2 21.83 2.94001 22.3 3.60001 21.8L5.31 20.52C5.71 20.22 6.27 20.26 6.63 20.62L8.28999 22.29C8.67999 22.68 9.32001 22.68 9.71001 22.29L11.39 20.61C11.74 20.26 12.3 20.22 12.69 20.52L14.4 21.8C15.06 22.29 16 21.82 16 21V4C16 2.9 16.9 2 18 2H7H6C3 2 2 3.79 2 6V7Z" />
<path d="M11.75 9.25H9.75V7.25C9.75 6.84 9.41 6.5 9 6.5C8.59 6.5 8.25 6.84 8.25 7.25V9.25H6.25C5.84 9.25 5.5 9.59 5.5 10C5.5 10.41 5.84 10.75 6.25 10.75H8.25V12.75C8.25 13.16 8.59 13.5 9 13.5C9.41 13.5 9.75 13.16 9.75 12.75V10.75H11.75C12.16 10.75 12.5 10.41 12.5 10C12.5 9.59 12.16 9.25 11.75 9.25Z" />
</svg>
